X:1
T:Waiting for the Dawn
C:Hanneke Cassel
R:Reel
M:4/4
L:1/8
%%printtempo 0
Q:160
K:Em
|"Em"{A}B2 BA BEBc-|"C"cc2A BAGB| "D" AG [A3D3]GGA-|"D"A [A2D2]G AGFA|"Em"{A}B2 BA BEBc-|
"C"cc2A BAGB|1 "D"AD D/D/D ADFd-| "Bm" dABd AGFA:|2 "D"AD D/D/D ADFd-|"Bm"dABd AGFD|
|:"C"EC C/C/C G2FG| "D"AD D/D/D AGFA |"G" BDDA B2 AB-|"G"BDBd AGFE|
"C"EC C/C/C G2 FG|"D"AD D/D/D BGFA |1"Em"GF E3 DB,D|"Em"GFGA BAGF:|2"Em"GF E6- |"Em"E3 DGBe|]
